static/img/in-field/checkbox-label-right-dark.svg

<svg fill="none" height="56" viewBox="0 0 123 56" width="123" xmlns="http://www.w3.org/2000/svg" xmlns:xlink="http://www.w3.org/1999/xlink"><clipPath id="a"><path d="m56 14h57v28h-57z"/></clipPath><path clip-rule="evenodd" d="m18.6667 16h18.6666c1.48 0 2.6667 1.2 2.6667 2.6667v18.6666c0 1.4667-1.1867 2.6667-2.6667 2.6667h-18.6666c-1.48 0-2.6667-1.2-2.6667-2.6667v-18.6666c0-1.4667 1.1867-2.6667 2.6667-2.6667zm0 12 6.6666 6.6667 12-12-1.88-1.8934-10.12 10.12-4.7866-4.7733z" fill="#019aeb" fill-rule="evenodd"/><path clip-rule="evenodd" d="m18.6667 28 6.6666 6.6667 12-12-1.88-1.8934-10.12 10.12-4.7866-4.7733z" fill="#fff" fill-rule="evenodd"/><g clip-path="url(#a)"><path d="m59.0732 37v-15.7051h1.8262v14.0508h6.9287v1.6543zm18.6514 0-.3545-1.6758h-.0859c-.5873.7376-1.1745 1.239-1.7617 1.5039-.5801.2578-1.307.3867-2.1807.3867-1.1673 0-2.084-.3007-2.75-.9023-.6589-.6016-.9883-1.4574-.9883-2.5674 0-2.3776 1.9014-3.6237 5.7041-3.7383l1.9981-.0644v-.7305c0-.9238-.2006-1.6042-.6016-2.041-.3939-.444-1.0277-.666-1.9014-.666-.9811 0-2.0911.3008-3.33.9023l-.5479-1.3642c.5801-.3151 1.2139-.5622 1.9014-.7412.6946-.1791 1.3893-.2686 2.084-.2686 1.4036 0 2.442.3115 3.1152.9346.6803.623 1.0205 1.622 1.0205 2.997v8.0352zm-4.0283-1.2568c1.11 0 1.9801-.3044 2.6103-.9131.6374-.6087.9561-1.461.9561-2.5567v-1.0634l-1.7832.0752c-1.418.0501-2.4421.2721-3.0723.666-.623.3867-.9345.9918-.9345 1.8154 0 .6445.1933 1.1351.58 1.4717.3939.3366.9418.5049 1.6436.5049zm14.7627-10.71c1.5469 0 2.7464.53 3.5986 1.5898.8594 1.0528 1.2891 2.5459 1.2891 4.4795s-.4333 3.4375-1.2998 4.5118c-.8594 1.067-2.0554 1.6005-3.5879 1.6005-.7663 0-1.4681-.1396-2.1055-.4189-.6302-.2865-1.1601-.7233-1.5898-1.3105h-.1289l-.376 1.5146h-1.2783v-16.7148h1.7832v4.0605c0 .9095-.0287 1.7259-.086 2.4492h.086c.8307-1.1745 2.0625-1.7617 3.6953-1.7617zm-.2578 1.4932c-1.2175 0-2.0948.3509-2.6319 1.0527-.5371.6947-.8056 1.8691-.8056 3.5234s.2757 2.8396.8271 3.5557c.5515.709 1.4359 1.0635 2.6533 1.0635 1.0957 0 1.9121-.3975 2.4493-1.1924.5371-.8021.8056-1.9515.8056-3.4482 0-1.5326-.2685-2.6749-.8056-3.4268-.5372-.752-1.3679-1.1279-2.4922-1.1279zm13.4948 10.6884c-1.7399 0-3.1149-.5299-4.1247-1.5898-1.0026-1.0599-1.5039-2.5316-1.5039-4.415 0-1.8978.4655-3.4053 1.3965-4.5225.9381-1.1172 2.195-1.6758 3.7701-1.6758 1.476 0 2.643.487 3.502 1.461.86.9668 1.289 2.2451 1.289 3.8349v1.1279h-8.11c.0358 1.3822.3832 2.4314 1.042 3.1475.666.7162 1.601 1.0742 2.804 1.0742 1.267 0 2.521-.2649 3.76-.7949v1.5898c-.631.2722-1.229.4655-1.794.5801-.559.1218-1.236.1826-2.031.1826zm-.483-10.7099c-.945 0-1.701.3079-2.2667.9238-.5586.6159-.888 1.4681-.9883 2.5567h6.155c0-1.1244-.25-1.9838-.752-2.5782-.501-.6015-1.217-.9023-2.148-.9023zm9.896 10.4951h-1.783v-16.7148h1.783z" fill="#fff"/></g></svg>

<svg width="123" height="56" viewBox="0 0 123 56" fill="none" xmlns="http://www.w3.org/2000/svg"><path fill-rule="evenodd" clip-rule="evenodd" d="M18.6667 16H37.3333C38.8133 16 40 17.2 40 18.6667V37.3333C40 38.8 38.8133 40 37.3333 40H18.6667C17.1867 40 16 38.8 16 37.3333V18.6667C16 17.2 17.1867 16 18.6667 16ZM18.6667 28L25.3333 34.6667L37.3333 22.6667L35.4533 20.7733L25.3333 30.8933L20.5467 26.12L18.6667 28Z" fill="#019AEB"/><path fill-rule="evenodd" clip-rule="evenodd" d="M18.6667 28L25.3333 34.6667L37.3333 22.6667L35.4533 20.7733L25.3333 30.8933L20.5467 26.12L18.6667 28Z" fill="#fff"/><g clip-path="url(#clip0_7258_87460)"><path d="M59.0732 37V21.2949H60.8994V35.3457H67.8281V37H59.0732ZM77.7246 37L77.3701 35.3242H77.2842C76.6969 36.0618 76.1097 36.5632 75.5225 36.8281C74.9424 37.0859 74.2155 37.2148 73.3418 37.2148C72.1745 37.2148 71.2578 36.9141 70.5918 36.3125C69.9329 35.7109 69.6035 34.8551 69.6035 33.7451C69.6035 31.3675 71.5049 30.1214 75.3076 30.0068L77.3057 29.9424V29.2119C77.3057 28.2881 77.1051 27.6077 76.7041 27.1709C76.3102 26.7269 75.6764 26.5049 74.8027 26.5049C73.8216 26.5049 72.7116 26.8057 71.4727 27.4072L70.9248 26.043C71.5049 25.7279 72.1387 25.4808 72.8262 25.3018C73.5208 25.1227 74.2155 25.0332 74.9102 25.0332C76.3138 25.0332 77.3522 25.3447 78.0254 25.9678C78.7057 26.5908 79.0459 27.5898 79.0459 28.9648V37H77.7246ZM73.6963 35.7432C74.8063 35.7432 75.6764 35.4388 76.3066 34.8301C76.944 34.2214 77.2627 33.3691 77.2627 32.2734V31.21L75.4795 31.2852C74.0615 31.3353 73.0374 31.5573 72.4072 31.9512C71.7842 32.3379 71.4727 32.943 71.4727 33.7666C71.4727 34.4111 71.666 34.9017 72.0527 35.2383C72.4466 35.5749 72.9945 35.7432 73.6963 35.7432ZM88.459 25.0332C90.0059 25.0332 91.2054 25.5632 92.0576 26.623C92.917 27.6758 93.3467 29.1689 93.3467 31.1025C93.3467 33.0361 92.9134 34.54 92.0469 35.6143C91.1875 36.6813 89.9915 37.2148 88.459 37.2148C87.6927 37.2148 86.9909 37.0752 86.3535 36.7959C85.7233 36.5094 85.1934 36.0726 84.7637 35.4854H84.6348L84.2588 37H82.9805V20.2852H84.7637V24.3457C84.7637 25.2552 84.735 26.0716 84.6777 26.7949H84.7637C85.5944 25.6204 86.8262 25.0332 88.459 25.0332ZM88.2012 26.5264C86.9837 26.5264 86.1064 26.8773 85.5693 27.5791C85.0322 28.2738 84.7637 29.4482 84.7637 31.1025C84.7637 32.7568 85.0394 33.9421 85.5908 34.6582C86.1423 35.3672 87.0267 35.7217 88.2441 35.7217C89.3398 35.7217 90.1562 35.3242 90.6934 34.5293C91.2305 33.7272 91.499 32.5778 91.499 31.0811C91.499 29.5485 91.2305 28.4062 90.6934 27.6543C90.1562 26.9023 89.3255 26.5264 88.2012 26.5264ZM101.696 37.2148C99.9561 37.2148 98.5811 36.6849 97.5713 35.625C96.5687 34.5651 96.0674 33.0934 96.0674 31.21C96.0674 29.3122 96.5329 27.8047 97.4639 26.6875C98.402 25.5703 99.6589 25.0117 101.234 25.0117C102.71 25.0117 103.877 25.4987 104.736 26.4727C105.596 27.4395 106.025 28.7178 106.025 30.3076V31.4355H97.915C97.9508 32.8177 98.2982 33.8669 98.957 34.583C99.623 35.2992 100.558 35.6572 101.761 35.6572C103.028 35.6572 104.282 35.3923 105.521 34.8623V36.4521C104.89 36.7243 104.292 36.9176 103.727 37.0322C103.168 37.154 102.491 37.2148 101.696 37.2148ZM101.213 26.5049C100.268 26.5049 99.512 26.8128 98.9463 27.4287C98.3877 28.0446 98.0583 28.8968 97.958 29.9854H104.113C104.113 28.861 103.863 28.0016 103.361 27.4072C102.86 26.8057 102.144 26.5049 101.213 26.5049ZM111.109 37H109.326V20.2852H111.109V37Z" fill="#fff"/></g><defs><clipPath id="clip0_7258_87460"><rect width="57" height="28" fill="#fff" transform="translate(56 14)"/></clipPath></defs></svg>
